azure-patterns/svg-lab.svg

<svg xmlns="http://www.w3.org/2000/svg" viewBox="0 0 45 46">
                                
                            
    <path d="M2.88461538,39.675 C2.88461538,40.0583333 2.88461538,40.6333333 3.07692308,41.0166667 C3.26923077,41.4 3.46153846,41.7833333 3.84615385,42.1666667 C4.23076923,42.55 4.42307692,42.7416667 5,42.9333333 C5.38461538,43.125 5.76923077,43.125 6.34615385,43.125 L16.7307692,43.125 L15.9615385,46 L6.34615385,46 C5.38461538,46 4.61538462,45.8083333 3.84615385,45.425 C3.07692308,45.0416667 2.5,44.6583333 1.92307692,44.0833333 C1.34615385,43.5083333 0.961538462,42.9333333 0.576923077,42.1666667 C0.192307692,41.4 0,40.6333333 0,39.675 C0,38.9083333 0.192307692,38.3333333 0.384615385,37.7583333 C0.576923077,37.1833333 0.961538462,36.6083333 1.34615385,36.0333333 L13.4615385,19.9333333 L13.4615385,7.475 C13.0769231,7.09166667 12.6923077,6.70833333 12.5,6.13333333 C12.3076923,5.55833333 12.1153846,4.98333333 12.1153846,4.40833333 C12.1153846,3.83333333 12.3076923,3.25833333 12.5,2.68333333 C12.6923077,2.10833333 13.0769231,1.725 13.4615385,1.34166667 C13.8461538,0.958333333 14.2307692,0.575 14.8076923,0.383333333 C15.1923077,0.191666667 15.7692308,0 16.3461538,0 L25,0 C25.5769231,0 26.1538462,0.191666667 26.7307692,0.383333333 C27.3076923,0.575 27.6923077,0.958333333 28.0769231,1.34166667 C28.4615385,1.725 28.8461538,2.10833333 29.0384615,2.68333333 C29.2307692,3.25833333 29.4230769,3.83333333 29.4230769,4.40833333 C29.4230769,4.98333333 29.2307692,5.55833333 29.0384615,6.13333333 C28.8461538,6.70833333 28.4615385,7.09166667 28.0769231,7.66666667 L28.0769231,19.9333333 L30.9615385,23.7666667 L28.8461538,25.875 L25.1923077,21.0833333 L25.1923077,5.75 C25.5769231,5.75 25.9615385,5.55833333 26.1538462,5.36666667 C26.3461538,5.175 26.5384615,4.79166667 26.5384615,4.40833333 C26.5384615,4.025 26.3461538,3.64166667 25.9615385,3.25833333 C25.7692308,3.06666667 25.3846154,2.875 25,2.875 L16.3461538,2.875 C15.9615385,2.875 15.5769231,3.06666667 15.3846154,3.25833333 C15,3.64166667 15,4.025 15,4.40833333 C15,4.79166667 15.1923077,5.175 15.3846154,5.36666667 C15.5769231,5.55833333 15.9615385,5.75 16.3461538,5.75 L16.3461538,20.7 L3.65384615,37.7583333 C3.07692308,38.3333333 2.88461538,39.1 2.88461538,39.675 Z M19.8076923,34.5 L18.4615385,35.8416667 L17.3076923,40.25 L6.34615385,40.25 C6.15384615,40.25 6.15384615,40.25 5.96153846,40.0583333 C5.76923077,39.8666667 5.76923077,39.8666667 5.76923077,39.675 C5.76923077,39.4833333 5.76923077,39.4833333 5.76923077,39.2916667 L9.61538462,34.5 L19.8076923,34.5 Z M40,36.0333333 C40.3846154,36.6083333 40.7692308,37.1833333 40.9615385,37.7583333 C41.1538462,38.3333333 41.3461538,39.1 41.3461538,39.675 C41.3461538,40.6333333 41.1538462,41.4 40.7692308,42.1666667 C40.3846154,42.9333333 40,43.5083333 39.4230769,44.0833333 C38.8461538,44.6583333 38.2692308,45.0416667 37.5,45.425 C36.7307692,45.8083333 35.9615385,46 35,46 L30,46 L32.8846154,43.125 L35,43.125 C35.3846154,43.125 35.9615385,43.125 36.3461538,42.9333333 C36.7307692,42.7416667 37.1153846,42.55 37.5,42.1666667 C37.8846154,41.7833333 38.0769231,41.5916667 38.2692308,41.2083333 C38.4615385,40.825 38.4615385,40.4416667 38.4615385,39.8666667 C38.4615385,39.4833333 38.4615385,39.2916667 38.2692308,38.9083333 C38.2692308,38.525 38.0769231,38.3333333 37.8846154,38.1416667 L40,36.0333333 Z M40.5769231,20.125 C41.1538462,20.125 41.7307692,20.3166667 42.3076923,20.5083333 C42.8846154,20.7 43.2692308,21.0833333 43.6538462,21.4666667 C44.0384615,21.85 44.4230769,22.425 44.6153846,22.8083333 C44.8076923,23.3833333 45,23.9583333 45,24.5333333 C45,25.1083333 44.8076923,25.6833333 44.6153846,26.2583333 C44.4230769,26.8333333 44.0384615,27.2166667 43.6538462,27.7916667 L27.5,43.8916667 L19.2307692,46 L21.3461538,37.5666667 L37.5,21.4666667 C37.8846154,21.0833333 38.4615385,20.7 39.0384615,20.5083333 C39.4230769,20.3166667 40,20.125 40.5769231,20.125 Z M41.7307692,25.6833333 C42.1153846,25.3 42.1153846,24.9166667 42.1153846,24.5333333 C42.1153846,24.15 41.9230769,23.7666667 41.7307692,23.3833333 C41.3461538,23 40.9615385,23 40.5769231,23 C40.3846154,23 40.1923077,23 40,23.1916667 C39.8076923,23.1916667 39.6153846,23.3833333 39.4230769,23.575 L24.0384615,38.9083333 L23.2692308,41.975 L26.3461538,41.2083333 L41.7307692,25.6833333 Z"></path>
</svg>

<svg xmlns="http://www.w3.org/2000/svg" viewBox="0 0 45 46"><path d="M2.885 39.675c0 .383 0 .958.192 1.342.192.383.385.766.77 1.15.384.383.576.575 1.153.766.385.192.77.192 1.346.192h10.385L15.96 46H6.347c-.961 0-1.73-.192-2.5-.575-.77-.383-1.346-.767-1.923-1.342-.577-.575-.961-1.15-1.346-1.916C.192 41.4 0 40.633 0 39.675c0-.767.192-1.342.385-1.917.192-.575.577-1.15.961-1.725l12.116-16.1V7.475c-.385-.383-.77-.767-.962-1.342-.192-.575-.385-1.15-.385-1.725 0-.575.193-1.15.385-1.725.192-.575.577-.958.962-1.341.384-.384.769-.767 1.346-.959.384-.191.961-.383 1.538-.383H25c.577 0 1.154.192 1.73.383.578.192.962.575 1.347.959.385.383.77.766.961 1.341.193.575.385 1.15.385 1.725 0 .575-.192 1.15-.385 1.725-.192.575-.576.959-.961 1.534v12.266l2.885 3.834-2.116 2.108-3.654-4.792V5.75c.385 0 .77-.192.962-.383.192-.192.384-.575.384-.959 0-.383-.192-.766-.576-1.15A1.472 1.472 0 0 0 25 2.875h-8.654c-.384 0-.77.192-.961.383C15 3.642 15 4.025 15 4.408c0 .384.192.767.385.959.192.191.577.383.961.383V20.7L3.654 37.758c-.577.575-.77 1.342-.77 1.917zM19.808 34.5l-1.346 1.342-1.154 4.408H6.346c-.192 0-.192 0-.384-.192-.193-.191-.193-.191-.193-.383v-.383L9.615 34.5h10.193zM40 36.033c.385.575.77 1.15.962 1.725.192.575.384 1.342.384 1.917 0 .958-.192 1.725-.577 2.492-.384.766-.769 1.341-1.346 1.916-.577.575-1.154.959-1.923 1.342-.77.383-1.538.575-2.5.575h-5l2.885-2.875H35c.385 0 .962 0 1.346-.192.385-.191.77-.383 1.154-.766.385-.384.577-.575.77-.959.192-.383.192-.766.192-1.341 0-.384 0-.575-.193-.959 0-.383-.192-.575-.384-.766L40 36.033zm.577-15.908c.577 0 1.154.192 1.73.383.578.192.962.575 1.347.959.384.383.77.958.961 1.341.193.575.385 1.15.385 1.725 0 .575-.192 1.15-.385 1.725-.192.575-.577.959-.961 1.534L27.5 43.892 19.23 46l2.116-8.433 16.154-16.1a4.19 4.19 0 0 1 1.538-.959c.385-.191.962-.383 1.539-.383zm1.154 5.558c.384-.383.384-.766.384-1.15 0-.383-.192-.766-.384-1.15C41.346 23 40.96 23 40.577 23c-.192 0-.385 0-.577.192-.192 0-.385.191-.577.383L24.038 38.908l-.769 3.067 3.077-.767 15.385-15.525z"/></svg>
